src/next/cmd/ko/sc_text.svg

<svg height="16" viewBox="0 0 16 16" width="16" xmlns="http://www.w3.org/2000/svg" xmlns:xlink="http://www.w3.org/1999/xlink"><linearGradient id="a" gradientUnits="userSpaceOnUse" x1="64" x2="67.199997" y1="100.79999" y2="-1.599988"><stop offset="0" stop-color="#1c1c1c"/><stop offset=".5" stop-color="#888"/><stop offset="1"/></linearGradient>




/&amp;amp;amp;amp;gt;<g transform="scale(.125)"><path d="m87.999995 8.00001v95.99998h12.000005v-41.999986h11.99999v-11.999999h-11.99999v-41.999995zm-71.999987 6v11.999997h47.999993c0 35.999997-23.999996 59.999995-47.999993 59.999995v11.999988c35.999995 0 59.999992-29.999989 59.999992-75.257803v-8.742177z" fill="url(#a)" fill-rule="evenodd"/><g fill="#a4c0e4"><path d="m29.438 93.030998h69.125v1h-69.125z" transform="matrix(1.8517179 0 0 7.9999983 -54.510869 -632.24782)"/><path d="m112 0h8v127.94262h-8z"/><path d="m35.881001 24.25h1v77.5h-1z" transform="matrix(8.0000031 0 0 1.6516129 -279.04812 -40.051613)"/></g></g></svg>

<?xml version="1.0" encoding="UTF-8" standalone="no"?>
<svg
   xmlns:dc="http://purl.org/dc/elements/1.1/"
   xmlns:cc="http://creativecommons.org/ns#"
   xmlns:rdf="http://www.w3.org/1999/02/22-rdf-syntax-ns#"
   xmlns:svg="http://www.w3.org/2000/svg"
   xmlns="http://www.w3.org/2000/svg"
   xmlns:sodipodi="http://sodipodi.sourceforge.net/DTD/sodipodi-0.dtd"
   xmlns:inkscape="http://www.inkscape.org/namespaces/inkscape"
   height="16"
   viewBox="0 0 16 16"
   width="16"
   version="1.1"
   id="svg19"
   sodipodi:docname="sc_text.svg"
   inkscape:version="0.92.4 (unknown)"><metadata
   id="metadata25">
  <rdf:RDF>
    <cc:Work
       rdf:about="">
      <dc:format>image/svg+xml</dc:format>
      <dc:type
         rdf:resource="http://purl.org/dc/dcmitype/StillImage" />
      <dc:title></dc:title>
    </cc:Work>
  </rdf:RDF>
</metadata>
<defs
   id="defs23" />
<sodipodi:namedview
   pagecolor="#ffffff"
   bordercolor="#666666"
   borderopacity="1"
   objecttolerance="10"
   gridtolerance="10"
   guidetolerance="10"
   inkscape:pageopacity="0"
   inkscape:pageshadow="2"
   inkscape:window-width="1366"
   inkscape:window-height="706"
   id="namedview21"
   showgrid="true"
   inkscape:zoom="7.375"
   inkscape:cx="13.501729"
   inkscape:cy="24.71252"
   inkscape:window-x="0"
   inkscape:window-y="0"
   inkscape:window-maximized="1"
   inkscape:current-layer="g842">
  <inkscape:grid
     type="xygrid"
     id="grid832" />
</sodipodi:namedview>
<linearGradient
   id="a"
   gradientUnits="userSpaceOnUse"
   x1="64"
   x2="67.199997"
   y1="100.79999"
   y2="-1.599988">
  <stop
     offset="0"
     stop-color="#1c1c1c"
     id="stop2" />
  <stop
     offset=".5"
     stop-color="#888"
     id="stop4" />
  <stop
     offset="1"
     id="stop6" />
</linearGradient>




/&amp;amp;amp;gt;<g
   id="g842"
   transform="scale(0.125)">
  <path
     id="path9"
     d="m 87.999995,8.00001 v 95.99998 H 100 V 62.000004 h 11.99999 V 50.000005 H 100 V 8.00001 Z m -71.999987,6 v 11.999997 h 47.999993 c 0,35.999997 -23.999996,59.999995 -47.999993,59.999995 V 97.99999 C 52.000003,97.99999 76,68.000001 76,22.742187 V 14.00001 Z"
     style="fill:url(#a);fill-rule:evenodd"
     inkscape:connector-curvature="0" />
  <g
     id="g17"
     style="fill:#a4c0e4">
    <path
       id="path11"
       transform="matrix(1.8517179,0,0,7.9999983,-54.510869,-632.24782)"
       d="m 29.438,93.030998 h 69.125 v 1 H 29.438 Z"
       inkscape:connector-curvature="0" />
    <path
       id="path13"
       d="m 112,0 h 8 v 127.94262 h -8 z"
       inkscape:connector-curvature="0" />
    <path
       id="path15"
       transform="matrix(8.0000031,0,0,1.6516129,-279.04812,-40.051613)"
       d="m 35.881001,24.25 h 1 v 77.5 h -1 z"
       inkscape:connector-curvature="0" />
  </g>
</g>
</svg>
